source/images/icons/icon-utility/generic.svg

<?xml version="1.0" encoding="UTF-8"?>
<svg width="24px" height="24px" viewBox="0 0 24 24" version="1.1" xmlns="http://www.w3.org/2000/svg" xmlns:xlink="http://www.w3.org/1999/xlink">
    <!-- Generator: Sketch 55.2 (78181) - https://sketchapp.com -->
    <title>Icons/24px/Generic</title>
    <desc>Created with Sketch.</desc>
    <g id="Icons/24px/Generic" stroke="none" stroke-width="1" fill="none" fill-rule="evenodd">
        <path d="M20.1235896,4.5011283 L18.5617948,5.75056415 C18.1952757,5.29300959 17.6318559,5 17,5 C15.8954305,5 15,5.8954305 15,7 C15,8.1045695 15.8954305,9 17,9 C17.6318559,9 18.1952757,8.70699041 18.5617948,8.24943585 L20.1235896,9.4988717 C19.3905514,10.4139808 18.2637117,11 17,11 C14.790861,11 13,9.209139 13,7 C13,4.790861 14.790861,3 17,3 C18.2637117,3 19.3905514,3.58601918 20.1235896,4.5011283 Z M8,9 L11,9 L11,11 L3,11 L3,9 L6,9 L6,5 L3,5 L3,3 L11,3 L11,5 L8,5 L8,9 Z M7,13 C9.209139,13 11,14.790861 11,17 C11,19.209139 9.209139,21 7,21 C4.790861,21 3,19.209139 3,17 C3,14.790861 4.790861,13 7,13 Z M7,15 C5.8954305,15 5,15.8954305 5,17 C5,18.1045695 5.8954305,19 7,19 C8.1045695,19 9,18.1045695 9,17 C9,15.8954305 8.1045695,15 7,15 Z M19,21 L19,17 C19,15.8954305 18.1045695,15 17,15 C15.8954305,15 15,15.8954305 15,17 L15,21 L13,21 L13,13 L15,13 L15,14 L15.2928932,13.7071068 C15.7456461,13.2543539 16.3597108,13 17,13 C19.209139,13 21,14.790861 21,17 L21,21 L19,21 Z" id="Icon" fill="#ADB5BD"></path>
    </g>
</svg>

<svg width="24" height="24">
    <title>
        Icons/24px/Generic
    </title>
    <path d="M20.124 4.501l-1.562 1.25a2 2 0 1 0 0 2.499l1.562 1.249a4 4 0 1 1 0-4.998zM8 9h3v2H3V9h3V5H3V3h8v2H8v4zm-1 4a4 4 0 1 1 0 8 4 4 0 0 1 0-8zm0 2a2 2 0 1 0 0 4 2 2 0 0 0 0-4zm12 6v-4a2 2 0 1 0-4 0v4h-2v-8h2v1l.293-.293A2.414 2.414 0 0 1 17 13a4 4 0 0 1 4 4v4h-2z" fill="#ADB5BD" fill-rule="evenodd"/>
</svg>
